icons/briefcase-5-line.svg

<svg xmlns="http://www.w3.org/2000/svg" width="24" height="24" fill="none"><g clip-path="url(#a)"><g><path fill="#121212" d="M7 5V2C7 1.73478 7.10536 1.48043 7.29289 1.29289C7.48043 1.10536 7.73478 1 8 1H16C16.2652 1 16.5196 1.10536 16.7071 1.29289C16.8946 1.48043 17 1.73478 17 2V5H21C21.2652 5 21.5196 5.10536 21.7071 5.29289C21.8946 5.48043 22 5.73478 22 6V20C22 20.2652 21.8946 20.5196 21.7071 20.7071C21.5196 20.8946 21.2652 21 21 21H3C2.73478 21 2.48043 20.8946 2.29289 20.7071C2.10536 20.5196 2 20.2652 2 20V6C2 5.73478 2.10536 5.48043 2.29289 5.29289C2.48043 5.10536 2.73478 5 3 5H7ZM16 15H13V16H11V15H8V19H16V15ZM8 7V13H11V12H13V13H16V7H8ZM6 13V7H4V13H6ZM18 13H20V7H18V13ZM6 15H4V19H6V15ZM18 15V19H20V15H18ZM9 3V5H15V3H9Z"/></g></g><defs><clipPath id="a"><rect width="24" height="24" fill="white"/></clipPath></defs></svg>

<svg width="24" height="24" fill="none" xmlns="http://www.w3.org/2000/svg"><g clip-path="url(#a)"><path d="M7 5V2a1 1 0 0 1 1-1h8a1 1 0 0 1 1 1v3h4a1 1 0 0 1 1 1v14a1 1 0 0 1-1 1H3a1 1 0 0 1-1-1V6a1 1 0 0 1 1-1h4Zm9 10h-3v1h-2v-1H8v4h8v-4ZM8 7v6h3v-1h2v1h3V7H8Zm-2 6V7H4v6h2Zm12 0h2V7h-2v6ZM6 15H4v4h2v-4Zm12 0v4h2v-4h-2ZM9 3v2h6V3H9Z" /></g><defs><clipPath id="a"><path fill="#fff" d="M0 0h24v24H0z"/></clipPath></defs></svg>
